icons/report.svg

<svg id="Layer_5" enable-background="new 0 0 64 64" height="512" viewBox="0 0 64 64" width="512" xmlns="http://www.w3.org/2000/svg"><g><g><g><path d="m2 9v38h40c0-2.76 2.24-5 5-5s5 2.24 5 5h4v-38z" fill="#e6e9ed"/></g><g><path d="m6 35h4v8h-4z" fill="#fcd770"/></g><g><path d="m14 37h4v6h-4z" fill="#fcd770"/></g><g><path d="m22 29h4v14h-4z" fill="#fcd770"/></g><g><path d="m34 33v6.52c-.62 1.08-1.12 2.25-1.46 3.48h-2.54v-10z" fill="#fcd770"/></g><g><path d="m47 38c-4.97 0-9 4.03-9 9 0 1.64.44 3.18 1.21 4.5 1.55 2.69 4.46 4.5 7.79 4.5s6.24-1.81 7.79-4.5c.77-1.32 1.21-2.86 1.21-4.5 0-4.97-4.03-9-9-9zm0 14c-2.76 0-5-2.24-5-5s2.24-5 5-5 5 2.24 5 5-2.24 5-5 5z" fill="#ccd1d9"/></g><g><path d="m54.79 51.5 5.2 3c-2.6 4.48-7.44 7.5-12.99 7.5s-10.39-3.02-12.99-7.5l5.2-3c1.55 2.69 4.46 4.5 7.79 4.5s6.24-1.81 7.79-4.5z" fill="#fcd770"/></g><g><path d="m62 47c0 2.73-.73 5.3-2.01 7.5l-5.2-3c.77-1.32 1.21-2.86 1.21-4.5 0-4.97-4.03-9-9-9v-6c3.38 0 6.5 1.12 9 3 3.64 2.74 6 7.1 6 12z" fill="#ff826e"/></g><g><path d="m47 32v6c-4.97 0-9 4.03-9 9 0 1.64.44 3.18 1.21 4.5l-5.2 3c-1.28-2.2-2.01-4.77-2.01-7.5 0-1.38.19-2.73.54-4 .34-1.23.84-2.4 1.46-3.48 2.59-4.5 7.45-7.52 13-7.52z" fill="#b4dd7f"/></g><g><path d="m29.41 22.59c.37.36.59.86.59 1.41 0 1.1-.9 2-2 2s-2-.9-2-2 .9-2 2-2c.55 0 1.05.22 1.41.59z" fill="#ff826e"/></g><g><path d="m38.41 16.41c-.36.37-.86.59-1.41.59s-1.05-.22-1.41-.59c-.37-.36-.59-.86-.59-1.41 0-1.1.9-2 2-2s2 .9 2 2c0 .55-.22 1.05-.59 1.41z" fill="#ff826e"/></g><g><path d="m44.41 19.59c.37.36.59.86.59 1.41 0 1.1-.9 2-2 2s-2-.9-2-2c0-.55.22-1.05.59-1.41.36-.37.86-.59 1.41-.59s1.05.22 1.41.59z" fill="#ff826e"/></g><g><path d="m56 2c3.31 0 6 2.69 6 6s-2.69 6-6 6c-1.66 0-3.16-.67-4.24-1.76-.86-.86-1.46-1.98-1.67-3.24-.06-.32-.09-.66-.09-1 0-3.31 2.69-6 6-6z" fill="#ff826e"/></g></g><g><path d="m57 34.53v-19.61c3.387-.488 6-3.401 6-6.92 0-3.859-3.14-7-7-7s-7 3.141-7 7h-48v40h30.051c.52 8.356 7.465 15 15.949 15 8.822 0 16-7.178 16-16 0-5.039-2.347-9.535-6-12.47zm-1-31.53c2.757 0 5 2.243 5 5s-2.243 5-5 5-5-2.243-5-5 2.243-5 5-5zm-53 7h46.295c.239.798.619 1.533 1.107 2.185l-6.116 6.116c-.392-.188-.824-.301-1.286-.301s-.894.113-1.285.301l-2.015-2.015c.187-.392.3-.824.3-1.286 0-1.654-1.346-3-3-3s-3 1.346-3 3c0 .462.113.894.301 1.285l-5.015 5.015c-.392-.187-.824-.3-1.286-.3-1.654 0-3 1.346-3 3s1.346 3 3 3 3-1.346 3-3c0-.462-.113-.894-.301-1.285l5.015-5.015c.392.187.824.3 1.286.3s.894-.113 1.285-.301l2.015 2.015c-.187.392-.3.824-.3 1.286 0 1.654 1.346 3 3 3s3-1.346 3-3c0-.462-.113-.894-.301-1.285l6.117-6.116c.915.686 2.001 1.151 3.184 1.322v18.245c-2.357-1.369-5.084-2.166-8-2.166-4.78 0-9.066 2.118-12 5.453v-4.453h-6v12h2.292c-.124.653-.199 1.322-.241 2h-28.051zm40 10c.551 0 1 .448 1 1s-.449 1-1 1-1-.448-1-1 .449-1 1-1zm-7-5c0-.552.449-1 1-1s1 .448 1 1-.449 1-1 1-1-.448-1-1zm-7 9c0 .552-.449 1-1 1s-1-.448-1-1 .449-1 1-1 1 .448 1 1zm18 31c-4.411 0-8-3.589-8-8s3.589-8 8-8 8 3.589 8 8-3.589 8-8 8zm-14-15.729c-.479.864-.875 1.777-1.189 2.729h-.811v-8h2zm13-6.22v4c-5.046.504-9 4.773-9 9.949 0 1.463.324 2.85.891 4.104l-3.469 2.003c-.902-1.848-1.422-3.916-1.422-6.107 0-7.382 5.747-13.433 13-13.949zm1 27.949c-4.814 0-9.068-2.443-11.588-6.155l3.483-2.011c1.818 2.518 4.769 4.166 8.105 4.166s6.287-1.648 8.105-4.166l3.483 2.011c-2.52 3.712-6.774 6.155-11.588 6.155zm12.578-7.893-3.469-2.003c.567-1.254.891-2.641.891-4.104 0-5.176-3.954-9.446-9-9.949v-4c7.253.516 13 6.567 13 13.949 0 2.191-.52 4.259-1.422 6.107z"/><path d="m47 41c-3.309 0-6 2.691-6 6s2.691 6 6 6 6-2.691 6-6-2.691-6-6-6zm0 10c-2.206 0-4-1.794-4-4s1.794-4 4-4 4 1.794 4 4-1.794 4-4 4z"/><path d="m5 12h2v2h-2z"/><path d="m9 12h14v2h-14z"/><path d="m5 16h2v2h-2z"/><path d="m9 16h14v2h-14z"/><path d="m5 20h2v2h-2z"/><path d="m9 20h14v2h-14z"/><path d="m5 24h2v2h-2z"/><path d="m9 24h14v2h-14z"/><path d="m5 44h6v-10h-6zm2-8h2v6h-2z"/><path d="m13 44h6v-8h-6zm2-6h2v4h-2z"/><path d="m21 44h6v-16h-6zm2-14h2v12h-2z"/></g></g></svg>

<?xml version="1.0" encoding="UTF-8" standalone="no"?>
<svg
   xmlns:dc="http://purl.org/dc/elements/1.1/"
   xmlns:cc="http://creativecommons.org/ns#"
   xmlns:rdf="http://www.w3.org/1999/02/22-rdf-syntax-ns#"
   xmlns:svg="http://www.w3.org/2000/svg"
   xmlns="http://www.w3.org/2000/svg"
   xmlns:sodipodi="http://sodipodi.sourceforge.net/DTD/sodipodi-0.dtd"
   xmlns:inkscape="http://www.inkscape.org/namespaces/inkscape"
   inkscape:version="1.0 (4035a4fb49, 2020-05-01)"
   sodipodi:docname="report.svg"
   version="1.1"
   width="24"
   viewBox="0 0 3 3"
   height="24"
   enable-background="new 0 0 64 64"
   id="Layer_5">
  <metadata
     id="metadata91">
    <rdf:RDF>
      <cc:Work
         rdf:about="">
        <dc:format>image/svg+xml</dc:format>
        <dc:type
           rdf:resource="http://purl.org/dc/dcmitype/StillImage" />
        <dc:title></dc:title>
      </cc:Work>
    </rdf:RDF>
  </metadata>
  <defs
     id="defs89" />
  <sodipodi:namedview
     inkscape:current-layer="Layer_5"
     inkscape:window-maximized="1"
     inkscape:window-y="0"
     inkscape:window-x="0"
     inkscape:cy="12.627631"
     inkscape:cx="13.311025"
     inkscape:zoom="31.5"
     showgrid="false"
     id="namedview87"
     inkscape:window-height="1417"
     inkscape:window-width="2560"
     inkscape:pageshadow="2"
     inkscape:pageopacity="0"
     guidetolerance="10"
     gridtolerance="10"
     objecttolerance="10"
     borderopacity="1"
     bordercolor="#666666"
     pagecolor="#ffffff" />
  <g
     transform="matrix(0.04730653,0,0,0.04730653,-0.01500246,-0.02013329)"
     id="g84">
    <g
       id="g54">
      <g
         id="g4">
        <path
           id="path2"
           fill="#e6e9ed"
           d="m 2,9 v 38 h 40 c 0,-2.76 2.24,-5 5,-5 2.76,0 5,2.24 5,5 h 4 V 9 Z" />
      </g>
      <g
         id="g8">
        <path
           id="path6"
           fill="#fcd770"
           d="m 6,35 h 4 v 8 H 6 Z" />
      </g>
      <g
         id="g12">
        <path
           id="path10"
           fill="#fcd770"
           d="m 14,37 h 4 v 6 h -4 z" />
      </g>
      <g
         id="g16">
        <path
           id="path14"
           fill="#fcd770"
           d="m 22,29 h 4 v 14 h -4 z" />
      </g>
      <g
         id="g20">
        <path
           id="path18"
           fill="#fcd770"
           d="m 34,33 v 6.52 C 33.38,40.6 32.88,41.77 32.54,43 H 30 V 33 Z" />
      </g>
      <g
         id="g24">
        <path
           id="path22"
           fill="#ccd1d9"
           d="m 47,38 c -4.97,0 -9,4.03 -9,9 0,1.64 0.44,3.18 1.21,4.5 1.55,2.69 4.46,4.5 7.79,4.5 3.33,0 6.24,-1.81 7.79,-4.5 C 55.56,50.18 56,48.64 56,47 56,42.03 51.97,38 47,38 Z m 0,14 c -2.76,0 -5,-2.24 -5,-5 0,-2.76 2.24,-5 5,-5 2.76,0 5,2.24 5,5 0,2.76 -2.24,5 -5,5 z" />
      </g>
      <g
         id="g28">
        <path
           id="path26"
           fill="#fcd770"
           d="m 54.79,51.5 5.2,3 C 57.39,58.98 52.55,62 47,62 41.45,62 36.61,58.98 34.01,54.5 l 5.2,-3 c 1.55,2.69 4.46,4.5 7.79,4.5 3.33,0 6.24,-1.81 7.79,-4.5 z" />
      </g>
      <g
         id="g32">
        <path
           id="path30"
           fill="#ff826e"
           d="m 62,47 c 0,2.73 -0.73,5.3 -2.01,7.5 l -5.2,-3 C 55.56,50.18 56,48.64 56,47 56,42.03 51.97,38 47,38 v -6 c 3.38,0 6.5,1.12 9,3 3.64,2.74 6,7.1 6,12 z" />
      </g>
      <g
         id="g36">
        <path
           id="path34"
           fill="#b4dd7f"
           d="m 47,32 v 6 c -4.97,0 -9,4.03 -9,9 0,1.64 0.44,3.18 1.21,4.5 l -5.2,3 C 32.73,52.3 32,49.73 32,47 32,45.62 32.19,44.27 32.54,43 32.88,41.77 33.38,40.6 34,39.52 36.59,35.02 41.45,32 47,32 Z" />
      </g>
      <g
         id="g40">
        <path
           id="path38"
           fill="#ff826e"
           d="M 29.41,22.59 C 29.78,22.95 30,23.45 30,24 c 0,1.1 -0.9,2 -2,2 -1.1,0 -2,-0.9 -2,-2 0,-1.1 0.9,-2 2,-2 0.55,0 1.05,0.22 1.41,0.59 z" />
      </g>
      <g
         id="g44">
        <path
           id="path42"
           fill="#ff826e"
           d="M 38.41,16.41 C 38.05,16.78 37.55,17 37,17 36.45,17 35.95,16.78 35.59,16.41 35.22,16.05 35,15.55 35,15 c 0,-1.1 0.9,-2 2,-2 1.1,0 2,0.9 2,2 0,0.55 -0.22,1.05 -0.59,1.41 z" />
      </g>
      <g
         id="g48">
        <path
           id="path46"
           fill="#ff826e"
           d="M 44.41,19.59 C 44.78,19.95 45,20.45 45,21 c 0,1.1 -0.9,2 -2,2 -1.1,0 -2,-0.9 -2,-2 0,-0.55 0.22,-1.05 0.59,-1.41 C 41.95,19.22 42.45,19 43,19 c 0.55,0 1.05,0.22 1.41,0.59 z" />
      </g>
      <g
         id="g52">
        <path
           id="path50"
           fill="#ff826e"
           d="m 56,2 c 3.31,0 6,2.69 6,6 0,3.31 -2.69,6 -6,6 -1.66,0 -3.16,-0.67 -4.24,-1.76 C 50.9,11.38 50.3,10.26 50.09,9 50.03,8.68 50,8.34 50,8 50,4.69 52.69,2 56,2 Z" />
      </g>
    </g>
    <g
       id="g82">
      <path
         id="path56"
         d="M 57,34.53 V 14.92 C 60.387,14.432 63,11.519 63,8 63,4.141 59.86,1 56,1 52.14,1 49,4.141 49,8 H 1 v 40 h 30.051 c 0.52,8.356 7.465,15 15.949,15 8.822,0 16,-7.178 16,-16 0,-5.039 -2.347,-9.535 -6,-12.47 z M 56,3 c 2.757,0 5,2.243 5,5 0,2.757 -2.243,5 -5,5 -2.757,0 -5,-2.243 -5,-5 0,-2.757 2.243,-5 5,-5 z M 3,10 h 46.295 c 0.239,0.798 0.619,1.533 1.107,2.185 l -6.116,6.116 C 43.894,18.113 43.462,18 43,18 c -0.462,0 -0.894,0.113 -1.285,0.301 L 39.7,16.286 C 39.887,15.894 40,15.462 40,15 c 0,-1.654 -1.346,-3 -3,-3 -1.654,0 -3,1.346 -3,3 0,0.462 0.113,0.894 0.301,1.285 L 29.286,21.3 C 28.894,21.113 28.462,21 28,21 c -1.654,0 -3,1.346 -3,3 0,1.654 1.346,3 3,3 1.654,0 3,-1.346 3,-3 0,-0.462 -0.113,-0.894 -0.301,-1.285 L 35.714,17.7 c 0.392,0.187 0.824,0.3 1.286,0.3 0.462,0 0.894,-0.113 1.285,-0.301 L 40.3,19.714 C 40.113,20.106 40,20.538 40,21 c 0,1.654 1.346,3 3,3 1.654,0 3,-1.346 3,-3 0,-0.462 -0.113,-0.894 -0.301,-1.285 l 6.117,-6.116 c 0.915,0.686 2.001,1.151 3.184,1.322 V 33.166 C 52.643,31.797 49.916,31 47,31 42.22,31 37.934,33.118 35,36.453 V 32 h -6 v 12 h 2.292 c -0.124,0.653 -0.199,1.322 -0.241,2 H 3 Z m 40,10 c 0.551,0 1,0.448 1,1 0,0.552 -0.449,1 -1,1 -0.551,0 -1,-0.448 -1,-1 0,-0.552 0.449,-1 1,-1 z m -7,-5 c 0,-0.552 0.449,-1 1,-1 0.551,0 1,0.448 1,1 0,0.552 -0.449,1 -1,1 -0.551,0 -1,-0.448 -1,-1 z m -7,9 c 0,0.552 -0.449,1 -1,1 -0.551,0 -1,-0.448 -1,-1 0,-0.552 0.449,-1 1,-1 0.551,0 1,0.448 1,1 z m 18,31 c -4.411,0 -8,-3.589 -8,-8 0,-4.411 3.589,-8 8,-8 4.411,0 8,3.589 8,8 0,4.411 -3.589,8 -8,8 z M 33,39.271 C 32.521,40.135 32.125,41.048 31.811,42 H 31 v -8 h 2 z m 13,-6.22 v 4 c -5.046,0.504 -9,4.773 -9,9.949 0,1.463 0.324,2.85 0.891,4.104 l -3.469,2.003 C 33.52,51.259 33,49.191 33,47 33,39.618 38.747,33.567 46,33.051 Z M 47,61 c -4.814,0 -9.068,-2.443 -11.588,-6.155 l 3.483,-2.011 C 40.713,55.352 43.664,57 47,57 c 3.336,0 6.287,-1.648 8.105,-4.166 l 3.483,2.011 C 56.068,58.557 51.814,61 47,61 Z M 59.578,53.107 56.109,51.104 C 56.676,49.85 57,48.463 57,47 57,41.824 53.046,37.554 48,37.051 v -4 c 7.253,0.516 13,6.567 13,13.949 0,2.191 -0.52,4.259 -1.422,6.107 z" />
      <path
         id="path58"
         d="m 47,41 c -3.309,0 -6,2.691 -6,6 0,3.309 2.691,6 6,6 3.309,0 6,-2.691 6,-6 0,-3.309 -2.691,-6 -6,-6 z m 0,10 c -2.206,0 -4,-1.794 -4,-4 0,-2.206 1.794,-4 4,-4 2.206,0 4,1.794 4,4 0,2.206 -1.794,4 -4,4 z" />
      <path
         id="path60"
         d="m 5,12 h 2 v 2 H 5 Z" />
      <path
         id="path62"
         d="m 9,12 h 14 v 2 H 9 Z" />
      <path
         id="path64"
         d="m 5,16 h 2 v 2 H 5 Z" />
      <path
         id="path66"
         d="m 9,16 h 14 v 2 H 9 Z" />
      <path
         id="path68"
         d="m 5,20 h 2 v 2 H 5 Z" />
      <path
         id="path70"
         d="m 9,20 h 14 v 2 H 9 Z" />
      <path
         id="path72"
         d="m 5,24 h 2 v 2 H 5 Z" />
      <path
         id="path74"
         d="m 9,24 h 14 v 2 H 9 Z" />
      <path
         id="path76"
         d="m 5,44 h 6 V 34 H 5 Z m 2,-8 h 2 v 6 H 7 Z" />
      <path
         id="path78"
         d="m 13,44 h 6 v -8 h -6 z m 2,-6 h 2 v 4 h -2 z" />
      <path
         id="path80"
         d="m 21,44 h 6 V 28 h -6 z m 2,-14 h 2 v 12 h -2 z" />
    </g>
  </g>
</svg>
